X:6
T:Gavotte 6
C:Michael Praetorius
M:C|
L:1/4
K:G
|: B/c/d/e/ d c | B>c B G | A/G/A/B/ A/B/c/d/ | B A/B/ G2 :|
|: B>A G/A/B/G/ | A2 A G/A/ | B/c/d/e/ c B | A2 A2 |
B/A/B/c/ B/c/ d | B A/G/ A G/A/ | B A/G/ F2 | G2 G2 :|
